docs/img/user.svg

<svg width="19" height="20" viewBox="0 0 19 20" fill="none" xmlns="http://www.w3.org/2000/svg">
  <path d="M9.0127 0.93573C6.2557 0.93573 4.0127 3.17873 4.0127 5.93573C4.0127 8.69273 6.2557 10.9357 9.0127 10.9357C11.7697 10.9357 14.0127 8.69273 14.0127 5.93573C14.0127 3.17873 11.7697 0.93573 9.0127 0.93573ZM9.0127 8.93573C7.3587 8.93573 6.0127 7.58973 6.0127 5.93573C6.0127 4.28173 7.3587 2.93573 9.0127 2.93573C10.6667 2.93573 12.0127 4.28173 12.0127 5.93573C12.0127 7.58973 10.6667 8.93573 9.0127 8.93573ZM18.0127 19.9357V18.9357C18.0127 15.0767 14.8717 11.9357 11.0127 11.9357H7.0127C3.1527 11.9357 0.0126953 15.0767 0.0126953 18.9357V19.9357H2.0127V18.9357C2.0127 16.1787 4.2557 13.9357 7.0127 13.9357H11.0127C13.7697 13.9357 16.0127 16.1787 16.0127 18.9357V19.9357H18.0127Z" fill="#222222"/>
</svg>

<svg width="19" height="20" fill="none" xmlns="http://www.w3.org/2000/svg"><path d="M9.013.936c-2.757 0-5 2.243-5 5s2.243 5 5 5 5-2.243 5-5-2.243-5-5-5Zm0 8c-1.654 0-3-1.346-3-3s1.346-3 3-3 3 1.346 3 3-1.346 3-3 3Zm9 11v-1c0-3.86-3.141-7-7-7h-4c-3.86 0-7 3.14-7 7v1h2v-1c0-2.757 2.243-5 5-5h4c2.757 0 5 2.243 5 5v1h2Z" fill="#222"/></svg>
